X:2
T:Extempore. Ca1758.026, The
M:2/4
Q:1/2=80
L:1/8
B:Cahusac,T. 24 Country Dances for the Year 1758
Z:vmp.Mike Hicken 2015 www.village-music-project.org.uk
N:* In the original these three notes are shown as quavers.
N: I have shown them as another triplet to give the correct bar length.
K:D
afdf|egfe|afdf|e2A2|afdf|egfe|(3fga "*" (3cde|d2D2||
{g}f2 ed|eace|{g}f2 ed|e2A2|{g}f2 ed|eacf|dgfe Td2 Td2 :|
|: fdAd|faba|bagf|e2A2|fdAd|faba|(3gab ac|d2d2 :|
W:
W: The 1st. Cu. cross over two Cu. .|  cross
W: up again :|  Lead down two Cu. and
W: cast up one .|  Lead thro' the top and
W: cast off :|  hand 4 with 3d. Cu. .|  and
W: Right and Left at top :|

